icons/14x14_trash_outline.svg

<svg xmlns="http://www.w3.org/2000/svg" width="14" height="14" viewBox="0 0 14 14">
  <path d="M5,7 L5,11 L9,11 L9,7 L5,7 Z M5,2 C5,1.44771525 5.44771525,1 6,1 L8,1 C8.55228475,1 9,1.44771525 9,2 L10,2 C11.1045695,2 12,2.8954305 12,4 L12,5 C12,5.74028236 11.5978014,6.38662619 11,6.73243561 L11,12 C11,12.5522847 10.5522847,13 10,13 L4,13 C3.44771525,13 3,12.5522847 3,12 L3,6.73243561 C2.40219863,6.38662619 2,5.74028236 2,5 L2,4 C2,2.8954305 2.8954305,2 4,2 L5,2 Z M6,4 L4,4 L4,5 L10,5 L10,4 L8,4 L6,4 Z"/>
</svg>

<svg width="14" height="14" fill="none" xmlns="http://www.w3.org/2000/svg"><path d="M5 7v4h4V7H5Zm0-5a1 1 0 0 1 1-1h2a1 1 0 0 1 1 1h1a2 2 0 0 1 2 2v1a2 2 0 0 1-1 1.732V12a1 1 0 0 1-1 1H4a1 1 0 0 1-1-1V6.732A2 2 0 0 1 2 5V4a2 2 0 0 1 2-2h1Zm1 2H4v1h6V4H6Z" fill="#000"/></svg>
